Newaita-dark/apps/16/spotify-client.svg

<svg height="16pt" viewBox="0 0 16 16" width="16pt" xmlns="http://www.w3.org/2000/svg" xmlns:xlink="http://www.w3.org/1999/xlink"><linearGradient id="a"><stop offset="0" stop-opacity=".313725"/><stop offset=".222222" stop-opacity=".27451"/><stop offset="1" stop-opacity="0"/></linearGradient><radialGradient id="b" cx="450.90894" cy="189.57936" gradientTransform="matrix(.00000009 -.0390662 -.0703192 -.00000005 22.261576 31.797666)" gradientUnits="userSpaceOnUse" r="21.166656" xlink:href="#a"/><radialGradient id="c" cx="450.90894" cy="189.57936" gradientTransform="matrix(-.00000009 .0390662 .0703192 .00000005 -6.38506 -3.763741)" gradientUnits="userSpaceOnUse" r="21.166656" xlink:href="#a"/><radialGradient id="d" cx="450.90894" cy="189.57936" gradientTransform="matrix(-.00000009 -.0390662 .0703192 -.00000005 -6.38506 31.797666)" gradientUnits="userSpaceOnUse" r="21.166656" xlink:href="#a"/><radialGradient id="e" cx="450.90894" cy="189.57936" gradientTransform="matrix(.00000009 .0390662 -.0703192 .00000005 22.261575 -3.763741)" gradientUnits="userSpaceOnUse" r="21.166656" xlink:href="#a"/><linearGradient id="f" gradientTransform="matrix(.00668003 0 0 .031253 6.232693 6.719392)" gradientUnits="userSpaceOnUse" x1="255.32306" x2="255.32304" y1="233.5" y2="254.66666"><stop offset="0" stop-opacity=".27451"/><stop offset="1" stop-opacity="0"/></linearGradient><linearGradient id="g" gradientUnits="userSpaceOnUse" x1="254" x2="254" y1="-168.66667" y2="233.5"><stop offset="0" stop-color="#81c784"/><stop offset="1" stop-color="#66bb6a"/></linearGradient><linearGradient id="h" gradientTransform="matrix(.00814339 .0014359 -.0014359 .00814339 1.441107 -1.315797)" gradientUnits="userSpaceOnUse" x1="871.21808" x2="1102.7169" y1="185.77885" y2="1729.0249"><stop offset="0" stop-color="#e0e0e0"/><stop offset="1" stop-color="#eee"/></linearGradient><path d="m9.097656 14.015625h1.320313v-.660156h-1.320313zm0 0" fill="url(#b)"/><path d="m6.78125 14.015625h-1.324219v.664063h1.324219zm0 0" fill="url(#c)"/><path d="m6.78125 14.015625h-1.324219v-.660156h1.324219zm0 0" fill="url(#d)"/><path d="m9.097656 14.015625h1.320313v.664063h-1.320313zm0 0" fill="url(#e)"/><path d="m6.78125 13.851562h2.316406v.828126h-2.316406zm0 0" fill="url(#f)"/><path d="m253.975747-168.629428c111.114389 0 201.105795 89.991406 201.105795 201.105795 0 110.989401-89.991406 200.980807-201.105795 200.980807-110.989402 0-201.105796-89.991406-201.105796-200.980807 0-111.114389 90.116394-201.105795 201.105796-201.105795zm0 0" fill="url(#g)" stroke="#333" stroke-linecap="round" stroke-width="3" transform="matrix(.031253 0 0 .031253 0 6.719392)"/><path d="m7.9375 14.015625c-3.480469 0-6.285156-2.800781-6.285156-6.28125 0-.023437 0-.042969 0-.0625.035156 3.453125 2.824218 6.222656 6.285156 6.222656s6.253906-2.769531 6.285156-6.222656v.0625c0 3.480469-2.804687 6.28125-6.285156 6.28125zm0 0" fill-opacity=".196078"/><path d="m7.9375 1.449219c-3.480469 0-6.285156 2.800781-6.285156 6.285156v.058594c.035156-3.453125 2.824218-6.222657 6.285156-6.222657s6.253906 2.769532 6.285156 6.222657c0-.019531 0-.039063 0-.058594 0-3.484375-2.804687-6.285156-6.285156-6.285156zm0 0" fill="#fff" fill-opacity=".392157"/><path d="m7.9375 1.402344c-3.507812 0-6.332031 2.824218-6.332031 6.332031 0 3.503906 2.824219 6.328125 6.332031 6.328125s6.332031-2.824219 6.332031-6.328125c0-3.507813-2.824219-6.332031-6.332031-6.332031zm0 .09375c3.457031 0 6.238281 2.78125 6.238281 6.238281 0 3.453125-2.78125 6.234375-6.238281 6.234375s-6.238281-2.78125-6.238281-6.234375c0-3.457031 2.78125-6.238281 6.238281-6.238281zm0 0" fill="#212121"/><path d="m8.488281 4.425781c-.789062-.140625-1.574219-.164062-2.335937-.082031-2.425782.417969-2.058594 2.15625-.304688 1.734375.753906-.152344 1.550782-.171875 2.355469-.027344.804687.140625 1.546875.429688 2.203125.832031 1.503906.996094 2.441406-.515624.308594-1.734374-.6875-.335938-1.433594-.582032-2.226563-.722657zm-.457031 2.601563c-.792969-.140625-1.578125-.164063-2.335938-.082032-1.71875.207032-1.523437 1.5-.242187 1.367188.757813-.125 1.546875-.125 2.347656.015625s1.542969.414063 2.210938.789063c1.160156.5625 1.785156-.585938.242187-1.367188-.6875-.335938-1.429687-.585938-2.222656-.722656zm-.402344 2.277344c-.792968-.136719-1.578125-.160157-2.335937-.078126-1.023438.074219-.789063 1.125-.179688 1.023438.757813-.113281 1.546875-.105469 2.34375.035156s1.542969.402344 2.214844.769532c.535156.300781 1.113281-.605469.179687-1.023438-.683593-.339844-1.429687-.585938-2.222656-.726562zm0 0" fill="url(#h)"/><path d="m7.015625 4.296875c-.289063 0-.578125.015625-.863281.046875-1.320313.226562-1.8125.847656-1.703125 1.292969.089843-.402344.613281-.859375 1.703125-1.042969.761718-.082031 1.546875-.058594 2.335937.078125.792969.140625 1.539063.386719 2.226563.722656.804687.460938 1.171875.960938 1.238281 1.355469.078125-.410156-.253906-1.039062-1.238281-1.601562-.6875-.335938-1.433594-.582032-2.226563-.722657-.492187-.089843-.984375-.128906-1.472656-.128906zm-.457031 2.601563c-.292969 0-.578125.015624-.863282.046874-.972656.117188-1.332031.582032-1.230468.941407.085937-.300781.472656-.601563 1.230468-.691407.757813-.082031 1.542969-.0625 2.335938.078126.792969.140624 1.535156.386718 2.222656.722656.566406.289062.839844.621094.902344.90625.082031-.316406-.160156-.777344-.902344-1.152344-.6875-.335938-1.429687-.585938-2.222656-.722656-.496094-.089844-.988281-.128906-1.472656-.128906zm-.402344 2.28125c-.289062 0-.578125.015624-.863281.046874-.585938.042969-.757813.40625-.683594.6875.054687-.210937.261719-.410156.683594-.441406.757812-.082031 1.542969-.058594 2.335937.082032.792969.140624 1.539063.386718 2.222656.722656.289063.128906.433594.308594.480469.480468.058594-.234374-.046875-.535156-.480469-.726562-.683593-.339844-1.429687-.585938-2.222656-.726562-.496094-.085938-.988281-.128907-1.472656-.125zm0 0" fill="#fff"/><path d="m271.599064-73.388523c-25.247589-4.499571-50.37019-5.249499-74.742863-2.62475-77.617588 13.373723-65.86871 68.993412-9.749069 55.494701 24.122697-4.874535 49.620262-5.499475 75.367803-.874916 25.747541 4.49957 49.495273 13.748687 70.493268 26.622457 48.120405 31.871957 78.11754-16.498424 9.874057-55.4947-21.997899-10.748974-45.870619-18.623222-71.243196-23.122792zm-14.623604 83.242051c-25.372577-4.499571-50.495178-5.249499-74.742862-2.62475-54.994749 6.624368-48.745345 47.995417-7.74926 43.745823 24.247684-3.999618 49.495273-3.999618 75.117826.499952s49.370286 13.248735 70.743245 25.247589c37.121455 17.998281 57.119545-18.74821 7.74926-43.745823-21.9979-10.748973-45.745632-18.748209-71.118209-23.122791zm-12.873771 72.868041c-25.372577-4.374582-50.495177-5.124511-74.742862-2.499761-32.746873 2.374773-25.247589 35.996562-5.749451 32.746873 24.247685-3.624654 49.495274-3.374678 74.992839 1.124892s49.370285 12.873771 70.868232 24.622649c17.123365 9.624081 35.621598-19.37315 5.749451-32.746873-21.872911-10.873962-45.745632-18.74821-71.118209-23.24778zm0 0" fill="none" stroke="#212121" stroke-linecap="round" stroke-width="3" transform="matrix(.031253 0 0 .031253 0 6.719392)"/><path d="m4.476562 5.667969c-.210937.535156.339844 1.03125 1.371094.785156.753906-.152344 1.550782-.171875 2.355469-.027344.804687.140625 1.546875.429688 2.203125.832031.988281.652344 1.730469.230469 1.523438-.484374-.148438.414062-.765626.550781-1.523438.046874-.65625-.402343-1.398438-.691406-2.203125-.832031-.804687-.144531-1.601563-.125-2.355469.027344-.734375.175781-1.222656-.023437-1.371094-.347656zm.027344 2.25c-.207031.40625.171875.851562.949219.769531.757813-.125 1.546875-.125 2.347656.015625.800781.144531 1.542969.414063 2.210938.789063.785156.382812 1.324219-.023438 1.113281-.566407-.136719.277344-.5625.394531-1.113281.128907-.667969-.375-1.410157-.644532-2.210938-.789063-.800781-.140625-1.589843-.136719-2.347656-.015625-.492187.050781-.824219-.105469-.949219-.332031zm.140625 2.03125c-.164062.324219.074219.742187.46875.675781.757813-.113281 1.546875-.105469 2.34375.035156s1.542969.402344 2.214844.769532c.398437.226562.824219-.222657.625-.640626-.109375.21875-.371094.347657-.625.203126-.671875-.367188-1.417969-.628907-2.214844-.769532s-1.585937-.148437-2.34375-.035156c-.21875.035156-.390625-.074219-.46875-.238281zm0 0" fill-opacity=".235294"/></svg>

<?xml version="1.0" encoding="UTF-8"?>
<svg xmlns="http://www.w3.org/2000/svg" xmlns:xlink="http://www.w3.org/1999/xlink" width="16pt" height="16pt" viewBox="0 0 16 16" version="1.1">
<defs>
<radialGradient id="radial0" gradientUnits="userSpaceOnUse" cx="450.90894" cy="189.57936" fx="450.90894" fy="189.57936" r="21.166656" gradientTransform="matrix(0.0000000870852,-0.0390662,-0.0703192,-0.0000000507693,22.261576,31.797666)">
<stop offset="0" style="stop-color:rgb(0%,0%,0%);stop-opacity:0.313725;"/>
<stop offset="0.222222" style="stop-color:rgb(0%,0%,0%);stop-opacity:0.27451;"/>
<stop offset="1" style="stop-color:rgb(0%,0%,0%);stop-opacity:0;"/>
</radialGradient>
<radialGradient id="radial1" gradientUnits="userSpaceOnUse" cx="450.90894" cy="189.57936" fx="450.90894" fy="189.57936" r="21.166656" gradientTransform="matrix(-0.0000000870852,0.0390662,0.0703192,0.0000000507693,-6.38506,-3.763741)">
<stop offset="0" style="stop-color:rgb(0%,0%,0%);stop-opacity:0.313725;"/>
<stop offset="0.222222" style="stop-color:rgb(0%,0%,0%);stop-opacity:0.27451;"/>
<stop offset="1" style="stop-color:rgb(0%,0%,0%);stop-opacity:0;"/>
</radialGradient>
<radialGradient id="radial2" gradientUnits="userSpaceOnUse" cx="450.90894" cy="189.57936" fx="450.90894" fy="189.57936" r="21.166656" gradientTransform="matrix(-0.0000000870852,-0.0390662,0.0703192,-0.0000000507693,-6.38506,31.797666)">
<stop offset="0" style="stop-color:rgb(0%,0%,0%);stop-opacity:0.313725;"/>
<stop offset="0.222222" style="stop-color:rgb(0%,0%,0%);stop-opacity:0.27451;"/>
<stop offset="1" style="stop-color:rgb(0%,0%,0%);stop-opacity:0;"/>
</radialGradient>
<radialGradient id="radial3" gradientUnits="userSpaceOnUse" cx="450.90894" cy="189.57936" fx="450.90894" fy="189.57936" r="21.166656" gradientTransform="matrix(0.0000000870852,0.0390662,-0.0703192,0.0000000507693,22.261575,-3.763741)">
<stop offset="0" style="stop-color:rgb(0%,0%,0%);stop-opacity:0.313725;"/>
<stop offset="0.222222" style="stop-color:rgb(0%,0%,0%);stop-opacity:0.27451;"/>
<stop offset="1" style="stop-color:rgb(0%,0%,0%);stop-opacity:0;"/>
</radialGradient>
<linearGradient id="linear0" gradientUnits="userSpaceOnUse" x1="255.32306" y1="233.5" x2="255.32304" y2="254.66666" gradientTransform="matrix(0.00668003,0,0,0.031253,6.232693,6.719392)">
<stop offset="0" style="stop-color:rgb(0%,0%,0%);stop-opacity:0.27451;"/>
<stop offset="1" style="stop-color:rgb(0%,0%,0%);stop-opacity:0;"/>
</linearGradient>
<linearGradient id="linear1" gradientUnits="userSpaceOnUse" x1="254" y1="-168.66667" x2="254" y2="233.5" >
<stop offset="0" style="stop-color:rgb(50.588235%,78.039216%,51.764706%);stop-opacity:1;"/>
<stop offset="1" style="stop-color:rgb(40%,73.333333%,41.568627%);stop-opacity:1;"/>
</linearGradient>
<linearGradient id="linear2" gradientUnits="userSpaceOnUse" x1="871.21808" y1="185.77885" x2="1102.7169" y2="1729.0249" gradientTransform="matrix(0.00814339,0.0014359,-0.0014359,0.00814339,1.441107,-1.315797)">
<stop offset="0" style="stop-color:rgb(87.843137%,87.843137%,87.843137%);stop-opacity:1;"/>
<stop offset="1" style="stop-color:rgb(93.333333%,93.333333%,93.333333%);stop-opacity:1;"/>
</linearGradient>
</defs>
<g id="surface1">
<path style=" stroke:none;fill-rule:nonzero;fill:url(#radial0);" d="M 9.097656 14.015625 L 10.417969 14.015625 L 10.417969 13.355469 L 9.097656 13.355469 Z M 9.097656 14.015625 "/>
<path style=" stroke:none;fill-rule:nonzero;fill:url(#radial1);" d="M 6.78125 14.015625 L 5.457031 14.015625 L 5.457031 14.679688 L 6.78125 14.679688 Z M 6.78125 14.015625 "/>
<path style=" stroke:none;fill-rule:nonzero;fill:url(#radial2);" d="M 6.78125 14.015625 L 5.457031 14.015625 L 5.457031 13.355469 L 6.78125 13.355469 Z M 6.78125 14.015625 "/>
<path style=" stroke:none;fill-rule:nonzero;fill:url(#radial3);" d="M 9.097656 14.015625 L 10.417969 14.015625 L 10.417969 14.679688 L 9.097656 14.679688 Z M 9.097656 14.015625 "/>
<path style=" stroke:none;fill-rule:nonzero;fill:url(#linear0);" d="M 6.78125 13.851562 L 9.097656 13.851562 L 9.097656 14.679688 L 6.78125 14.679688 Z M 6.78125 13.851562 "/>
<path style="fill-rule:nonzero;fill:url(#linear1);stroke-width:3;stroke-linecap:round;stroke-linejoin:miter;stroke:rgb(20%,20%,20%);stroke-opacity:1;stroke-miterlimit:4;" d="M 253.975747 -168.629428 C 365.090136 -168.629428 455.081542 -78.638022 455.081542 32.476367 C 455.081542 143.465768 365.090136 233.457174 253.975747 233.457174 C 142.986345 233.457174 52.869951 143.465768 52.869951 32.476367 C 52.869951 -78.638022 142.986345 -168.629428 253.975747 -168.629428 Z M 253.975747 -168.629428 " transform="matrix(0.031253,0,0,0.031253,0,6.719392)"/>
<path style=" stroke:none;fill-rule:nonzero;fill:rgb(0%,0%,0%);fill-opacity:0.196078;" d="M 7.9375 14.015625 C 4.457031 14.015625 1.652344 11.214844 1.652344 7.734375 C 1.652344 7.710938 1.652344 7.691406 1.652344 7.671875 C 1.6875 11.125 4.476562 13.894531 7.9375 13.894531 C 11.398438 13.894531 14.191406 11.125 14.222656 7.671875 C 14.222656 7.691406 14.222656 7.710938 14.222656 7.734375 C 14.222656 11.214844 11.417969 14.015625 7.9375 14.015625 Z M 7.9375 14.015625 "/>
<path style=" stroke:none;fill-rule:nonzero;fill:rgb(100%,100%,100%);fill-opacity:0.392157;" d="M 7.9375 1.449219 C 4.457031 1.449219 1.652344 4.25 1.652344 7.734375 C 1.652344 7.753906 1.652344 7.773438 1.652344 7.792969 C 1.6875 4.339844 4.476562 1.570312 7.9375 1.570312 C 11.398438 1.570312 14.191406 4.339844 14.222656 7.792969 C 14.222656 7.773438 14.222656 7.753906 14.222656 7.734375 C 14.222656 4.25 11.417969 1.449219 7.9375 1.449219 Z M 7.9375 1.449219 "/>
<path style=" stroke:none;fill-rule:nonzero;fill:rgb(12.941176%,12.941176%,12.941176%);fill-opacity:1;" d="M 7.9375 1.402344 C 4.429688 1.402344 1.605469 4.226562 1.605469 7.734375 C 1.605469 11.238281 4.429688 14.0625 7.9375 14.0625 C 11.445312 14.0625 14.269531 11.238281 14.269531 7.734375 C 14.269531 4.226562 11.445312 1.402344 7.9375 1.402344 Z M 7.9375 1.496094 C 11.394531 1.496094 14.175781 4.277344 14.175781 7.734375 C 14.175781 11.1875 11.394531 13.96875 7.9375 13.96875 C 4.480469 13.96875 1.699219 11.1875 1.699219 7.734375 C 1.699219 4.277344 4.480469 1.496094 7.9375 1.496094 Z M 7.9375 1.496094 "/>
<path style=" stroke:none;fill-rule:nonzero;fill:url(#linear2);" d="M 8.488281 4.425781 C 7.699219 4.285156 6.914062 4.261719 6.152344 4.34375 C 3.726562 4.761719 4.09375 6.5 5.847656 6.078125 C 6.601562 5.925781 7.398438 5.90625 8.203125 6.050781 C 9.007812 6.191406 9.75 6.480469 10.40625 6.882812 C 11.910156 7.878906 12.847656 6.367188 10.714844 5.148438 C 10.027344 4.8125 9.28125 4.566406 8.488281 4.425781 Z M 8.03125 7.027344 C 7.238281 6.886719 6.453125 6.863281 5.695312 6.945312 C 3.976562 7.152344 4.171875 8.445312 5.453125 8.3125 C 6.210938 8.1875 7 8.1875 7.800781 8.328125 C 8.601562 8.46875 9.34375 8.742188 10.011719 9.117188 C 11.171875 9.679688 11.796875 8.53125 10.253906 7.75 C 9.566406 7.414062 8.824219 7.164062 8.03125 7.027344 Z M 7.628906 9.304688 C 6.835938 9.167969 6.050781 9.144531 5.292969 9.226562 C 4.269531 9.300781 4.503906 10.351562 5.113281 10.25 C 5.871094 10.136719 6.660156 10.144531 7.457031 10.285156 C 8.253906 10.425781 9 10.6875 9.671875 11.054688 C 10.207031 11.355469 10.785156 10.449219 9.851562 10.03125 C 9.167969 9.691406 8.421875 9.445312 7.628906 9.304688 Z M 7.628906 9.304688 "/>
<path style=" stroke:none;fill-rule:nonzero;fill:rgb(100%,100%,100%);fill-opacity:1;" d="M 7.015625 4.296875 C 6.726562 4.296875 6.4375 4.3125 6.152344 4.34375 C 4.832031 4.570312 4.339844 5.191406 4.449219 5.636719 C 4.539062 5.234375 5.0625 4.777344 6.152344 4.59375 C 6.914062 4.511719 7.699219 4.535156 8.488281 4.671875 C 9.28125 4.8125 10.027344 5.058594 10.714844 5.394531 C 11.519531 5.855469 11.886719 6.355469 11.953125 6.75 C 12.03125 6.339844 11.699219 5.710938 10.714844 5.148438 C 10.027344 4.8125 9.28125 4.566406 8.488281 4.425781 C 7.996094 4.335938 7.503906 4.296875 7.015625 4.296875 Z M 6.558594 6.898438 C 6.265625 6.898438 5.980469 6.914062 5.695312 6.945312 C 4.722656 7.0625 4.363281 7.527344 4.464844 7.886719 C 4.550781 7.585938 4.9375 7.285156 5.695312 7.195312 C 6.453125 7.113281 7.238281 7.132812 8.03125 7.273438 C 8.824219 7.414062 9.566406 7.660156 10.253906 7.996094 C 10.820312 8.285156 11.09375 8.617188 11.15625 8.902344 C 11.238281 8.585938 10.996094 8.125 10.253906 7.75 C 9.566406 7.414062 8.824219 7.164062 8.03125 7.027344 C 7.535156 6.9375 7.042969 6.898438 6.558594 6.898438 Z M 6.15625 9.179688 C 5.867188 9.179688 5.578125 9.195312 5.292969 9.226562 C 4.707031 9.269531 4.535156 9.632812 4.609375 9.914062 C 4.664062 9.703125 4.871094 9.503906 5.292969 9.472656 C 6.050781 9.390625 6.835938 9.414062 7.628906 9.554688 C 8.421875 9.695312 9.167969 9.941406 9.851562 10.277344 C 10.140625 10.40625 10.285156 10.585938 10.332031 10.757812 C 10.390625 10.523438 10.285156 10.222656 9.851562 10.03125 C 9.167969 9.691406 8.421875 9.445312 7.628906 9.304688 C 7.132812 9.21875 6.640625 9.175781 6.15625 9.179688 Z M 6.15625 9.179688 "/>
<path style="fill:none;stroke-width:3;stroke-linecap:round;stroke-linejoin:miter;stroke:rgb(12.941176%,12.941176%,12.941176%);stroke-opacity:1;stroke-miterlimit:4;" d="M 271.599064 -73.388523 C 246.351475 -77.888094 221.228874 -78.638022 196.856201 -76.013273 C 119.238613 -62.63955 130.987491 -7.019861 187.107132 -20.518572 C 211.229829 -25.393107 236.727394 -26.018047 262.474935 -21.393488 C 288.222476 -16.893918 311.970208 -7.644801 332.968203 5.228969 C 381.088608 37.100926 411.085743 -11.269455 342.84226 -50.265731 C 320.844361 -61.014705 296.971641 -68.888953 271.599064 -73.388523 Z M 256.97546 9.853528 C 231.602883 5.353957 206.480282 4.604029 182.232598 7.228778 C 127.237849 13.853146 133.487253 55.224195 174.483338 50.974601 C 198.731022 46.974983 223.978611 46.974983 249.601164 51.474553 C 275.223717 55.974123 298.97145 64.723288 320.344409 76.722142 C 357.465864 94.720423 377.463954 57.973932 328.093669 32.976319 C 306.095769 22.227346 282.348037 14.22811 256.97546 9.853528 Z M 244.101689 82.721569 C 218.729112 78.346987 193.606512 77.597058 169.358827 80.221808 C 136.611954 82.596581 144.111238 116.21837 163.609376 112.968681 C 187.857061 109.344027 213.10465 109.594003 238.602215 114.093573 C 264.09978 118.593143 287.9725 126.967344 309.470447 138.716222 C 326.593812 148.340303 345.092045 119.343072 315.219898 105.969349 C 293.346987 95.095387 269.474266 87.221139 244.101689 82.721569 Z M 244.101689 82.721569 " transform="matrix(0.031253,0,0,0.031253,0,6.719392)"/>
<path style=" stroke:none;fill-rule:nonzero;fill:rgb(0%,0%,0%);fill-opacity:0.235294;" d="M 4.476562 5.667969 C 4.265625 6.203125 4.816406 6.699219 5.847656 6.453125 C 6.601562 6.300781 7.398438 6.28125 8.203125 6.425781 C 9.007812 6.566406 9.75 6.855469 10.40625 7.257812 C 11.394531 7.910156 12.136719 7.488281 11.929688 6.773438 C 11.78125 7.1875 11.164062 7.324219 10.40625 6.820312 C 9.75 6.417969 9.007812 6.128906 8.203125 5.988281 C 7.398438 5.84375 6.601562 5.863281 5.847656 6.015625 C 5.113281 6.191406 4.625 5.992188 4.476562 5.667969 Z M 4.503906 7.917969 C 4.296875 8.324219 4.675781 8.769531 5.453125 8.6875 C 6.210938 8.5625 7 8.5625 7.800781 8.703125 C 8.601562 8.847656 9.34375 9.117188 10.011719 9.492188 C 10.796875 9.875 11.335938 9.46875 11.125 8.925781 C 10.988281 9.203125 10.5625 9.320312 10.011719 9.054688 C 9.34375 8.679688 8.601562 8.410156 7.800781 8.265625 C 7 8.125 6.210938 8.128906 5.453125 8.25 C 4.960938 8.300781 4.628906 8.144531 4.503906 7.917969 Z M 4.644531 9.949219 C 4.480469 10.273438 4.71875 10.691406 5.113281 10.625 C 5.871094 10.511719 6.660156 10.519531 7.457031 10.660156 C 8.253906 10.800781 9 11.0625 9.671875 11.429688 C 10.070312 11.65625 10.496094 11.207031 10.296875 10.789062 C 10.1875 11.007812 9.925781 11.136719 9.671875 10.992188 C 9 10.625 8.253906 10.363281 7.457031 10.222656 C 6.660156 10.082031 5.871094 10.074219 5.113281 10.1875 C 4.894531 10.222656 4.722656 10.113281 4.644531 9.949219 Z M 4.644531 9.949219 "/>
</g>
</svg>
